X:1
T:The Ashland Tragedy II
M:2/4
L:1/8
K:D
 A,| FF F3/2 E/2| F F2 F| AA GF| E3 D/2D/2| EE ED| C E2 F| AA GE| D3||\
